X:2815
T:Fishers Hornpipe. JBs.028
A:North Shropshire
F:http://richardrobinson.tunebook.org.uk/tune/7087
L:1/8
M:4/4
Q:1/2=90
R:.Hornpipe
S:Jas.Blackshaw MS, 1837, N.Shropshire
Z:Tony Weatherall 2006
Z: Contributed 2016-04-26 01:23:23 by jim Gaskins fiddeji@comcast.net
K:D
dAFA GBAG|FAFA GBAG|FDFD GEGE|FDFD EABc|!
dAFA GBAG|FAFA GBAG|FA dg fedc|d2d>d d4:|!
|:ecAc efge|fdAd fgaf|ecAc efgf|edcB A2AB/c/|!
BGEG BcdB|AFdB AFDd|BAGF EGFE|D2D>DD4:|
